X:1
T:De Montford
C:Jo Freya
K:Cm
M:2/4
L:1/8
cg2 c|a2 cg-|ge fg |fe de |cg2 c|a2 cg-|
ge fg |fz z2 :: d>e fd-|df ed |e>d ce-|e/d/c de |
d>e fd-|df ed |1 e2 f2 |g/a/g/f/ ed :|2 e2 d2 |c4 |]
